assets/svg/icon_login_xlogo.svg

<svg width="24" height="24" viewBox="0 0 24 24" fill="none" xmlns="http://www.w3.org/2000/svg">
<path d="M13.6065 10.6983L19.888 3.5H18.3995L12.9452 9.75022L8.58893 3.5H3.56445L10.152 12.9514L3.56445 20.5H5.05306L10.8129 13.8996L15.4135 20.5H20.438L13.6061 10.6983H13.6065ZM11.5676 13.0347L10.9002 12.0936L5.58943 4.60473H7.87585L12.1617 10.6485L12.8291 11.5896L18.4002 19.4455H16.1138L11.5676 13.0351V13.0347Z" fill="#494949"/>
</svg>

<svg xmlns="http://www.w3.org/2000/svg" width="24" height="24" fill="none"><path fill="#494949" d="M13.607 10.698 19.888 3.5h-1.489l-5.454 6.25L8.59 3.5H3.564l6.588 9.451L3.564 20.5h1.49l5.759-6.6 4.6 6.6h5.025zm-2.04 2.337-.667-.941-5.31-7.49h2.286l4.286 6.045.667.94 5.571 7.856h-2.286z"/></svg>
